X: 1315
T: An Maidrín Ruadh
R: hornpipe
M: 4/4
K: Amajor
|:A>Bc>d e2 e2|f>ed>c e3c|A>Bc>d e2c>A|B2B2 A2 (3cde|
a2c'>b a2(3agf|e2a2 c2B>A|A>Bc>A B>AB>c|A2 (3AAA A2e>c:|
|:A>Bc>d e2a2|f2a2 e2a2|f2a2 e>cA>c|B2B2 A2 (3efg|
a2 a2 g2 (3gfe|f2 f2 e2c>B|A>Bc>A B>AB>c|1 A2 (3AAA A2e>c:|2 A2 (3AAA A2 (3cde||
|:a3b c'2 (3aaa|b2 (3aaa c'>ab>a|e>fa>b c'>ab>a|f>af>a e2 (3efg|$
a>ba>g e>gf>e|e>cA>c e>dc>B|A>Bc>A B>AB>c|1 A2 (3AAA A2 (3cde:|2 A2 (3AAA A2e>c||

